X:1
T:Title
%%score ( 1 2 3 ) ( 4 5 )
L:1/8
Q:1/4=97
M:2/4
K:Db
V:1 treble nm="Grand Piano, Soprano"
V:2 treble 
V:3 treble 
V:4 bass nm="Choir Pad, Taylor (Proctor)"
V:5 bass 
V:1
 [FA]2 [_FB][=FA] | [EG]2 [EG]2 | [DF]2 [DE]2 | [CE]3 [CE] | [DF]2 [_CF]2 | F .A3 | .F4 | %7
 [CG]2 [CF][CE] | DA [CG][DF] | [DE]2 [DF]2 | [EG]2 [EA]2 | D-[Dd] z G | [DA]2 [CE]>F | D4- | D4 |] %15
V:2
 x4 | x4 | x4 | x4 | x4 | C2 z =G | x4 | x4 | x4 | x4 | x4 | .A2 D2 | x4 | x4 | x4 |] %15
V:3
 x4 | x4 | x4 | x4 | x4 | z2 _F2 | x4 | x4 | x4 | x4 | x4 | x4 | x4 | x4 | x4 |] %15
V:4
 DA, [D,=G,][D,A,] | [D,B,]2 [D,C]2 | DA, [B,,=G,]2 | [A,,A,]3 [A,,A,] | [D,A,]2 [D,A,]2 | %5
w: By~H.~I.~Proctor,~1879 * * *|||||
 [C,A,]2 [C,B,]2 | .[F,A,]4 | [E,A,]2 [C,A,][G,A,] | [F,A,]2 A,-[D,A,] | [G,B,]2 [F,B,]2 | %10
w: |||||
 B,-[D,B,] A,G, | [G,B,]2 [F,B,]2 | E,F, G,A, | [D,F,]4- | [D,F,]4 |] %15
w: |||||
V:5
 D,2 z2 | x4 | D,2 z2 | x4 | x4 | x4 | x4 | x4 | z2 .E,2 | x4 | .E,2 C,2 | x4 | A,,2 A,,2 | x4 | %14
 x4 |] %15

